dataset/zed/icon.svg

<?xml version="1.0" encoding="UTF-8" standalone="no"?>
<svg
   viewBox="0 0 128 128"
   style="display:inline;enable-background:new"
   version="1.0"
   id="svg11300"
   height="128"
   width="128"
   xml:space="preserve"
   xmlns:xlink="http://www.w3.org/1999/xlink"
   xmlns="http://www.w3.org/2000/svg"
   xmlns:svg="http://www.w3.org/2000/svg"
   xmlns:rdf="http://www.w3.org/1999/02/22-rdf-syntax-ns#"
   xmlns:cc="http://creativecommons.org/ns#"
   xmlns:dc="http://purl.org/dc/elements/1.1/"><title
     id="title4162">Adwaita Icon Template</title><defs
     id="defs3"><linearGradient
       id="linearGradient9"><stop
         style="stop-color:#222224;stop-opacity:1;"
         offset="0"
         id="stop7" /><stop
         style="stop-color:#181819;stop-opacity:1;"
         offset="0.20791735"
         id="stop8" /><stop
         style="stop-color:#000000;stop-opacity:0.50349504;"
         offset="0.44470081"
         id="stop10" /><stop
         style="stop-color:#000000;stop-opacity:0;"
         offset="0.59491509"
         id="stop9" /></linearGradient><linearGradient
       id="linearGradient1"><stop
         style="stop-color:#2b2c2e;stop-opacity:1;"
         offset="0"
         id="stop1" /><stop
         style="stop-color:#0b0a0a;stop-opacity:1;"
         offset="1"
         id="stop2" /></linearGradient><linearGradient
       y2="44"
       x2="464"
       y1="44"
       x1="48"
       gradientTransform="matrix(0.25,0,0,0.25,0,53)"
       gradientUnits="userSpaceOnUse"
       id="linearGradient1747"
       xlink:href="#linearGradient974-3" /><linearGradient
       xlink:href="#linearGradient1"
       id="linearGradient2"
       x1="64"
       y1="10"
       x2="64"
       y2="114"
       gradientUnits="userSpaceOnUse" /><linearGradient
       id="linearGradient974-3"><stop
         style="stop-color:#262626;stop-opacity:1;"
         offset="0"
         id="stop962-2" /><stop
         id="stop964-9"
         offset="0.04166667"
         style="stop-color:#686466;stop-opacity:1;" /><stop
         style="stop-color:#262626;stop-opacity:1;"
         offset="0.08333334"
         id="stop966-5" /><stop
         id="stop968-4"
         offset="0.91666669"
         style="stop-color:#262626;stop-opacity:1;" /><stop
         style="stop-color:#686466;stop-opacity:1;"
         offset="0.95833331"
         id="stop970-6" /><stop
         style="stop-color:#262626;stop-opacity:1;"
         offset="1"
         id="stop972-6" /></linearGradient><linearGradient
       xlink:href="#linearGradient9"
       id="linearGradient7"
       x1="131.22722"
       y1="-41.383232"
       x2="131.22722"
       y2="22.428146"
       gradientUnits="userSpaceOnUse" /></defs><metadata
     id="metadata4"><rdf:RDF><cc:Work
         rdf:about=""><dc:format>image/svg+xml</dc:format><dc:type
           rdf:resource="http://purl.org/dc/dcmitype/StillImage" /><dc:creator><cc:Agent><dc:title>GNOME Design Team</dc:title></cc:Agent></dc:creator><dc:source /><cc:license
           rdf:resource="http://creativecommons.org/licenses/by-sa/4.0/" /><dc:title>Adwaita Icon Template</dc:title><dc:subject><rdf:Bag /></dc:subject><dc:date /><dc:rights><cc:Agent><dc:title /></cc:Agent></dc:rights><dc:publisher><cc:Agent><dc:title /></cc:Agent></dc:publisher><dc:identifier /><dc:relation /><dc:language /><dc:coverage /><dc:description /><dc:contributor><cc:Agent><dc:title /></cc:Agent></dc:contributor></cc:Work><cc:License
         rdf:about="http://creativecommons.org/licenses/by-sa/4.0/"><cc:permits
           rdf:resource="http://creativecommons.org/ns#Reproduction" /><cc:permits
           rdf:resource="http://creativecommons.org/ns#Distribution" /><cc:requires
           rdf:resource="http://creativecommons.org/ns#Notice" /><cc:requires
           rdf:resource="http://creativecommons.org/ns#Attribution" /><cc:permits
           rdf:resource="http://creativecommons.org/ns#DerivativeWorks" /><cc:requires
           rdf:resource="http://creativecommons.org/ns#ShareAlike" /></cc:License></rdf:RDF></metadata><rect
     ry="8"
     rx="8"
     y="32"
     x="12"
     height="83.999992"
     width="104"
     id="rect1709"
     style="display:inline;fill:url(#linearGradient1747);fill-opacity:1;stroke:none;stroke-width:0.25;stroke-linecap:butt;stroke-linejoin:miter;stroke-miterlimit:4;stroke-dasharray:none;stroke-dashoffset:0;stroke-opacity:1;marker:none;marker-start:none;marker-mid:none;marker-end:none;paint-order:normal;enable-background:new" /><rect
     style="display:inline;fill:url(#linearGradient2);fill-opacity:1;stroke:none;stroke-width:0.25;stroke-linecap:butt;stroke-linejoin:miter;stroke-miterlimit:4;stroke-dasharray:none;stroke-dashoffset:0;stroke-opacity:1;marker:none;marker-start:none;marker-mid:none;marker-end:none;paint-order:normal;enable-background:new"
     id="rect1711"
     width="104"
     height="100"
     x="12"
     y="12"
     rx="8"
     ry="8" /><g
     style="fill:none"
     id="g1"
     transform="matrix(0.55208333,0,0,0.55208333,37.5,35.5)"><path
       fill-rule="evenodd"
       clip-rule="evenodd"
       d="M 9,6 C 7.34315,6 6,7.34315 6,9 V 75 H 0 V 9 C 0,4.02944 4.02944,0 9,0 h 80.3787 c 4.0091,0 6.0168,4.84715 3.182,7.68198 L 43.0551,57.1875 H 57 V 51 h 6 v 7.6875 c 0,2.4853 -2.0147,4.5 -4.5,4.5 H 37.0551 L 26.7426,73.5 H 73.5 V 36 h 6 v 37.5 c 0,3.3137 -2.6863,6 -6,6 H 20.7426 L 10.2426,90 H 87 c 1.6569,0 3,-1.3431 3,-3 V 21 h 6 v 66 c 0,4.9706 -4.0294,9 -9,9 H 6.62132 C 2.61224,96 0.604504,91.1529 3.43934,88.318 L 52.7574,39 H 39 v 6 H 33 V 37.5 C 33,35.0147 35.0147,33 37.5,33 h 21.2574 l 10.5,-10.5 H 22.5 V 60 h -6 V 22.5 c 0,-3.3137 2.6863,-6 6,-6 H 75.2574 L 85.7574,6 Z"
       fill="#ffffff"
       id="path1" /></g><path
     id="path5"
     style="opacity:1;fill:url(#linearGradient7);fill-opacity:1;stroke-width:1.2"
     d="M 151.95094 -43.090853 L 151.29484 -42.551215 L 152.05227 -42.480637 L 151.95094 -43.090853 z M 147.69894 -39.592966 L 125.6369 -21.442862 L 99.321034 0.2066409 L 131.22688 12.171085 L 163.13272 24.135528 L 161.07995 11.797503 L 143.06672 10.119008 L 147.69894 -39.592966 z "
     transform="matrix(1.1606118,-0.1081472,0.1081472,1.1606118,-76.56309,100.05029)" /></svg>

<svg xmlns="http://www.w3.org/2000/svg" xmlns:xlink="http://www.w3.org/1999/xlink" xml:space="preserve" width="128" height="128" style="display:inline" viewBox="0 0 128 128"><title>Adwaita Icon Template</title><defs><linearGradient id="c"><stop offset="0" style="stop-color:#222224;stop-opacity:1"/><stop offset=".208" style="stop-color:#181819;stop-opacity:1"/><stop offset=".445" style="stop-color:#000;stop-opacity:.50349504"/><stop offset=".595" style="stop-color:#000;stop-opacity:0"/></linearGradient><linearGradient id="b"><stop offset="0" style="stop-color:#2b2c2e;stop-opacity:1"/><stop offset="1" style="stop-color:#0b0a0a;stop-opacity:1"/></linearGradient><linearGradient xlink:href="#a" id="d" x1="48" x2="464" y1="44" y2="44" gradientTransform="matrix(.25 0 0 .25 0 53)" gradientUnits="userSpaceOnUse"/><linearGradient xlink:href="#b" id="e" x1="64" x2="64" y1="10" y2="114" gradientUnits="userSpaceOnUse"/><linearGradient id="a"><stop offset="0" style="stop-color:#262626;stop-opacity:1"/><stop offset=".042" style="stop-color:#686466;stop-opacity:1"/><stop offset=".083" style="stop-color:#262626;stop-opacity:1"/><stop offset=".917" style="stop-color:#262626;stop-opacity:1"/><stop offset=".958" style="stop-color:#686466;stop-opacity:1"/><stop offset="1" style="stop-color:#262626;stop-opacity:1"/></linearGradient><linearGradient xlink:href="#c" id="f" x1="131.227" x2="131.227" y1="-41.383" y2="22.428" gradientUnits="userSpaceOnUse"/></defs><rect width="104" height="84" x="12" y="32" rx="8" ry="8" style="display:inline;fill:url(#d);fill-opacity:1;stroke:none;stroke-width:.25;stroke-linecap:butt;stroke-linejoin:miter;stroke-miterlimit:4;stroke-dasharray:none;stroke-dashoffset:0;stroke-opacity:1;marker:none;marker-start:none;marker-mid:none;marker-end:none;paint-order:normal"/><rect width="104" height="100" x="12" y="12" rx="8" ry="8" style="display:inline;fill:url(#e);fill-opacity:1;stroke:none;stroke-width:.25;stroke-linecap:butt;stroke-linejoin:miter;stroke-miterlimit:4;stroke-dasharray:none;stroke-dashoffset:0;stroke-opacity:1;marker:none;marker-start:none;marker-mid:none;marker-end:none;paint-order:normal"/><path fill="#fff" fill-rule="evenodd" d="M9 6a3 3 0 0 0-3 3v66H0V9a9 9 0 0 1 9-9h80.379c4.009 0 6.016 4.847 3.182 7.682L43.055 57.188H57V51h6v7.688a4.5 4.5 0 0 1-4.5 4.5H37.055L26.743 73.5H73.5V36h6v37.5a6 6 0 0 1-6 6H20.743L10.243 90H87a3 3 0 0 0 3-3V21h6v66a9 9 0 0 1-9 9H6.621c-4.009 0-6.016-4.847-3.182-7.682L52.757 39H39v6h-6v-7.5a4.5 4.5 0 0 1 4.5-4.5h21.257l10.5-10.5H22.5V60h-6V22.5a6 6 0 0 1 6-6h52.757L85.757 6Z" clip-rule="evenodd" style="fill:none" transform="translate(37.5 35.5)scale(.55208)"/><path d="m151.95-43.09-.655.539.757.07zm-4.251 3.497-22.062 18.15L99.32.207l31.906 11.964 31.906 11.965-2.053-12.338-18.013-1.679z" style="opacity:1;fill:url(#f);fill-opacity:1;stroke-width:1.2" transform="rotate(-5.324 1037.762 873.463)scale(1.16564)"/></svg>
